packages/core/src/svgs/networks/mono/etherlink.svg

<svg width="24" height="24" viewBox="0 0 24 24" fill="none" xmlns="http://www.w3.org/2000/svg">
<path d="M12 2C6.47709 2 2 6.47709 2 12C2 17.5229 6.47709 22 12 22C17.5229 22 22 17.5229 22 12C22 6.47709 17.5229 2 12 2ZM12 20.23C7.45482 20.23 3.77005 16.5454 3.77005 12C3.77005 7.45459 7.45459 3.77005 12 3.77005C16.5454 3.77005 20.23 7.45459 20.23 12C20.23 16.5454 16.5454 20.23 12 20.23Z" fill="white"/>
<path d="M11.9453 6.50125C8.91951 6.53094 6.4674 9.0377 6.50132 12.0635C6.51004 12.8372 6.67849 13.5725 6.97559 14.2381C7.02011 14.3377 7.15181 14.3599 7.22767 14.2816L8.44006 13.0304C8.51922 12.9489 8.55174 12.8335 8.52865 12.722C8.48059 12.489 8.45537 12.2477 8.45537 12.0004C8.45537 10.0421 10.0426 8.45484 12.0002 8.45484C12.2004 8.45484 12.3967 8.47133 12.5881 8.50336C12.7159 8.52481 12.8464 8.48429 12.9369 8.39099L14.1427 7.14703C14.2134 7.07423 14.1887 6.95243 14.0949 6.91379C13.4333 6.64119 12.7072 6.49371 11.9453 6.50125Z" fill="white"/>
<path d="M12.0545 17.5054C15.0804 17.4756 17.5325 14.9689 17.4985 11.9431C17.4899 11.1694 17.3214 10.434 17.0243 9.76852C16.9798 9.66889 16.848 9.64664 16.7722 9.72489L15.5598 10.9761C15.4807 11.0576 15.4482 11.1731 15.4713 11.2846C15.5193 11.5176 15.5445 11.7589 15.5445 12.0063C15.5445 13.9645 13.9573 15.5518 11.9997 15.5518C11.7994 15.5518 11.6032 15.5353 11.4119 15.5033C11.2839 15.4818 11.1534 15.5223 11.0629 15.6156L9.85717 16.8595C9.78642 16.9324 9.81117 17.0541 9.90505 17.0928C10.5665 17.3654 11.2927 17.5129 12.0545 17.5054Z" fill="white"/>
<path d="M9.16689 13.0878L6.8574 15.3973C6.38871 15.866 6.38867 16.6259 6.85731 17.0945C7.32595 17.5632 8.0858 17.5632 8.55449 17.0944L10.8639 14.7849C11.3327 14.3163 11.3327 13.5564 10.864 13.0878C10.3954 12.6192 9.63555 12.6192 9.16689 13.0878Z" fill="white"/>
<path d="M15.3944 6.87303L13.0849 9.18251C12.6163 9.65121 12.6162 10.4111 13.0849 10.8797C13.5535 11.3483 14.3133 11.3483 14.782 10.8796L17.0915 8.57011C17.5602 8.10143 17.5603 7.34158 17.0915 6.87294C16.6229 6.4043 15.8632 6.40434 15.3944 6.87303Z" fill="white"/>
</svg>

<svg xmlns="http://www.w3.org/2000/svg" width="24" height="24" fill="none" viewBox="0 0 24 24">
    <path fill="#fff" d="M12 2C6.477 2 2 6.477 2 12s4.477 10 10 10 10-4.477 10-10S17.523 2 12 2m0 18.23a8.23 8.23 0 1 1 0-16.46 8.23 8.23 0 0 1 0 16.46"/>
    <path fill="#fff" d="M11.945 6.501c-3.025.03-5.478 2.537-5.444 5.562.009.774.177 1.51.475 2.175.044.1.176.122.252.044L8.44 13.03a.34.34 0 0 0 .089-.308 3.545 3.545 0 0 1 4.06-4.219.4.4 0 0 0 .348-.112l1.206-1.244a.144.144 0 0 0-.048-.233 5.5 5.5 0 0 0-2.15-.413m.11 11.004c3.025-.03 5.477-2.536 5.444-5.562a5.5 5.5 0 0 0-.475-2.174.155.155 0 0 0-.252-.044l-1.212 1.251a.34.34 0 0 0-.089.309q.072.35.073.721a3.545 3.545 0 0 1-4.132 3.497.4.4 0 0 0-.35.113L9.858 16.86a.144.144 0 0 0 .048.233 5.5 5.5 0 0 0 2.15.412m-2.889-4.417-2.31 2.31a1.2 1.2 0 1 0 1.697 1.696l2.31-2.31a1.2 1.2 0 1 0-1.697-1.696m6.227-6.215-2.31 2.31a1.2 1.2 0 0 0 1.698 1.697l2.31-2.31a1.2 1.2 0 1 0-1.698-1.697"/>
</svg>
